flaticon/interaction/price-tag-4.svg

<svg xmlns="http://www.w3.org/2000/svg" width="32" height="32" viewBox="0 0 24 24">
    <path d="M 23.875 17.742188 L 19.089844 9.539062 C 18.925781 9.257812 18.636719 9.09375 18.308594 9.09375 C 17.984375 9.09375 17.695312 9.257812 17.53125 9.539062 L 12.746094 17.742188 C 12.578125 18.027344 12.578125 18.363281 12.742188 18.648438 C 12.90625 18.933594 13.199219 19.101562 13.523438 19.101562 L 23.09375 19.101562 C 23.421875 19.101562 23.714844 18.933594 23.878906 18.648438 C 24.042969 18.363281 24.039062 18.027344 23.875 17.742188 Z M 23.179688 18.246094 C 23.164062 18.269531 23.140625 18.292969 23.09375 18.292969 L 13.527344 18.292969 C 13.480469 18.292969 13.453125 18.269531 13.441406 18.246094 C 13.429688 18.222656 13.417969 18.1875 13.441406 18.148438 L 18.226562 9.949219 C 18.25 9.90625 18.285156 9.898438 18.308594 9.898438 C 18.335938 9.898438 18.371094 9.910156 18.394531 9.949219 L 23.179688 18.148438 C 23.199219 18.1875 23.191406 18.222656 23.179688 18.246094 Z M 23.179688 18.246094"/>
    <path d="M18.34375 11.832031C18.121094 11.832031 17.941406 12.011719 17.941406 12.234375L17.941406 15.464844C17.941406 15.691406 18.121094 15.871094 18.34375 15.871094 18.566406 15.871094 18.75 15.691406 18.75 15.464844L18.75 12.234375C18.75 12.011719 18.566406 11.832031 18.34375 11.832031zM18.058594 16.800781C17.984375 16.871094 17.9375 16.976562 17.9375 17.082031 17.9375 17.1875 17.984375 17.292969 18.058594 17.367188 18.132812 17.441406 18.238281 17.484375 18.34375 17.484375 18.449219 17.484375 18.554688 17.441406 18.628906 17.367188 18.707031 17.296875 18.746094 17.191406 18.746094 17.082031 18.746094 16.976562 18.707031 16.871094 18.628906 16.800781 18.484375 16.644531 18.207031 16.644531 18.058594 16.800781zM15.550781 5.835938C15.550781 6.710938 16.261719 7.425781 17.140625 7.425781 18.015625 7.425781 18.726562 6.710938 18.726562 5.835938 18.726562 4.957031 18.015625 4.246094 17.140625 4.246094 16.261719 4.246094 15.550781 4.957031 15.550781 5.835938zM17.921875 5.835938C17.921875 6.265625 17.570312 6.617188 17.140625 6.617188 16.707031 6.617188 16.355469 6.265625 16.355469 5.835938 16.355469 5.402344 16.707031 5.050781 17.140625 5.050781 17.570312 5.050781 17.921875 5.402344 17.921875 5.835938zM17.921875 5.835938"/>
    <path d="M 12.976562 1.417969 L 17.964844 1.417969 L 21.980469 5.421875 L 21.980469 10.632812 L 22.789062 10.632812 L 22.789062 5.089844 L 18.296875 0.609375 L 12.640625 0.609375 L 2.421875 10.796875 L 2.425781 10.796875 L 0 13.21875 L 10.152344 23.390625 L 13.269531 20.40625 L 3.570312 10.796875 Z M 12.109375 20.398438 L 10.164062 22.261719 L 1.144531 13.21875 L 3 11.367188 Z M 12.109375 20.398438"/>
</svg>

<svg xmlns="http://www.w3.org/2000/svg" width="32" height="32" viewBox="0 0 24 24">
    <path d="M23.875 17.742L19.09 9.54a.889.889 0 0 0-.781-.445.887.887 0 0 0-.778.445l-4.785 8.203a.887.887 0 0 0-.004.906.893.893 0 0 0 .781.454h9.57a.894.894 0 0 0 .786-.454.896.896 0 0 0-.004-.906zm-.695.504a.095.095 0 0 1-.086.047h-9.567c-.047 0-.074-.023-.086-.047-.011-.023-.023-.058 0-.098l4.786-8.199a.09.09 0 0 1 .082-.05c.027 0 .062.011.086.05l4.785 8.2c.02.038.011.074 0 .097zm0 0"/>
    <path d="M18.344 11.832a.402.402 0 0 0-.403.402v3.23c0 .227.18.407.403.407.222 0 .406-.18.406-.406v-3.23a.405.405 0 0 0-.406-.403zm0 0M18.059 16.8a.396.396 0 0 0-.122.282.409.409 0 0 0 .691.285.38.38 0 0 0 .118-.285c0-.105-.039-.21-.117-.281a.406.406 0 0 0-.57 0zm0 0M15.55 5.836c0 .875.712 1.59 1.59 1.59a1.59 1.59 0 0 0 0-3.18c-.878 0-1.59.711-1.59 1.59zm2.372 0a.784.784 0 1 1-1.567-.005.784.784 0 0 1 1.567.005zm0 0"/>
    <path d="M12.977 1.418h4.988l4.015 4.004v5.21h.81V5.09L18.296.61H12.64L2.42 10.796h.005L0 13.219 10.152 23.39l3.118-2.985-9.7-9.61zm-.868 18.98l-1.945 1.864-9.02-9.043L3 11.367zm0 0"/>
</svg>
